X: 93
T: THE RUSHY MOUNTAIN
B: O'Neill's 93
M: 2/4
L: 1/8
Z: Transcribed by John Chambers <jc@trillian.mit.edu>
N: "Moderate"
N: "Collected by F.O'Neill"
K:D
A \
| Ad df | (e/d/c/d/) ea | fd Be | (d2 c)A \
| Ad df | (e/d/c/d/) ed | cA B^G | A2 z ||
|| d \
| .c.A .A.d | .c.A .A.d | (c/d/e/f/) gf | (f2 e)d \
| .c.A .A.d | cA Hfd | (c/d/e/f/) gc | d2 z ||


